X:1
T:Aleph. Ego vir videns
T:José de Torres y Martinez Bravo [1665-1738]
T:From the Lamentations of Jeremiah, chapter 3, verse 1
T:Aleph. Ego vir videns
T:Lamentación sola; tercera del jueves santo
T:Copyright © 
T:Copyright © 
T:Copyright © 
T:Copyright © 
T:Copyright © 
C:José de Torres y Martinez Bravo [1665-1738]
Z:From the Lamentations
Z:of Jeremiah, chapter 3, verse 1
Z:Copyright ©
%%score 1 2
L:1/8
M:4/4
K:C
V:1 treble nm="[Treble]" snm="S."
V:2 bass nm="Continuo" snm="Cont."
V:1
 a6 g2 | ^f2 e2 f2 d2 | g2 f2 e2 d2 | ^c2 B2 d4- | d4 ^c4 | d8 || z2 d2 e2 ^f2 | gfge f2 a2- | %8
w: A- *|||||leph;|E- go vir|vi- * * * dens pau-|
 ad g3 a (f2- | f2 e2) f4 | z2 f2 ^c2 f2 | z2 _b2 ^f2 g2 | e>e f>f ^cB (d2- | d2 ^c2) d4 || %14
w: * per- ta- tem me-|* * am,|in vir- ga,|in vir- ga,|in- dig- na- ti- o- nis e-|* * ius.|
 z2 ag ^fe g2- | g2 ^f2 g!courtesy!=fed | ^cB d4 c2 | d8- | d8 || z2 d>e f2 e2 | z2 d4 c2 | %21
w: A- * * * *|||leph.|_|Me mi- na- vit|et ad-|
 B4 A2 a2 | f3 e d2 d2 | _B3 B A4 | z efg fefg | e2 g2 ^c2 f2 | (f2 e>d) d4 || defg a2 e2 | %28
w: dux- it in|te- ne- bras, in|te- ne- bras,|et non in lu- * * *|cem, et non in|lu- * * cem.|A- * * * * *|
 fe d4 ^c2 | d8 || z4 z agf | e2 f4 e2 | AB c4 B2 | ef g4 ^f2 | Bc (d4 ^c2) | d8 || d2 cd e2 de | %37
w: |leph.|Tan- tum in|me ver- tit,|et con- ver- tit|ma- num su- am|to- ta di- *|e.|Be- * * * * *|
 f2 ef g2 fg | a4 z4 || A2 GA B2 AB | ^c2 Bc d4- | d4 ^c4 | d8 || z2 d2 f2 ^c2 | d6 A2 | %45
w: |th,|Be- * * * * *|||th.|Ve- tus- tam|fe- cim|
 _Bc (A4 G2) | A4 z2 e2 | fg (e4 d2) | e2 a2 f2 ^c2 | d2 e2 fegf | ef (d4 ^c2) | d8 || z2 a4 g2 | %53
w: pel- lem me- *|am et|car- nem me- *|am, con tri- vit|os- sa me- * * *||a.|Be- *|
 fefg edef | dcde ^cB d2- | d2 ^cB c4 | d8 || z def ee z g | fedc dcBA | ^G2 (c2 B4) | A4 z4 || %61
w: |||th.|Ae- di- fi- ca- vit in|gi- * * * * * * *|ro me- *|o,|
 z2 ag f2 ed | a2 z2 z2 d2- | d2 c2 Bc A2- | A2 A^G A4 || z4 agfe | d2 ef gfed | ^c2 d4 c2 | d8 || %69
w: et cir- cum- de- dit|me fel-|* le et la- bo-|* * * rem.|Be- * * *|||th.|
 z2 d2 d2 e2 | f4 f4 | z4 A2 A2 | _B6 B2 | A4 f2 f2 | f3 f e4 | z4 c2 c2 | c3 c _B4 | %77
w: In te- ne-|bro- sis|col- lo-|ca- vit|me, qua- si|mor- tu- os,|qua- si|mor- tu- os|
 !courtesy!_B2 c2 (A4- | A4 A2 G2) | A8 || f2 g2 a4 | d2 e2 f4 | B2 c2 d2 e2 | fegf e4 | d8- | %85
w: sem- pi- ter-||nos.|Gi- * *||||mel.|
 d8 || z aaa gf ga | fefg e2 a2 | a2 ^g2 a2 z e | ^fe g3 g f2 | z2 gf e2 d2 | z2 d3 d c2 | %92
w: _|Cir- cum ae- di- * fi- *|ca- * * * vit ad-|ver- sum me, ut|non e- gre- di- ar|ag- gra- va- vit|con- pe- dem|
 (B2 A4 ^G2) | A8 || z2 f4 e2- | e2 d4 ^c2 | d8- | d8 || d4 z ddd | g>g g2 z eee | a>a a2 z2 fa | %101
w: me- * *|um.|Gi- *||mel.|_|Sed et cum cla-|ma- ve- ro, et cum cla-|ma- ve- ro, et ro-|
 d>d d2 z2 e2 | c2 BA ^G3 G | ABcd e2 c2 | fedc B4 | A8 || z4 z2 fg | agfe defg | ^cB d4 c2 | d8 || %110
w: ga- ve- ro ex-|clu- sit o- ra- ti-|o- * * * nem _|me- * * * *|am,|Gi- *|||mel.|
 z2 d2 f2 e2 | f2 e2 f(e d2- | d2 ^c2) d2 d2 | e2 fg ^f4 | g4 z2 g2- | gg a2 a2 g2- | %116
w: Con- clu- sit|vi- as me- * *|* * as la-|pi- di bus qua-|dris, se-|* mi tas me- as|
 g2 f2 (f2 e2) | d8 || z2 d2 e3 e | f2 f2 g3 g | a4 z4 | z2 d2 g4- | g2 g2 f4 | z2 d2 f4- | %124
w: _ sub- ver- *|tit.|Je- ru- sa-|lem, Je- ru- sa-|lem,|con- ver-|* te- re|ad do-|
 f2 f2 e4 | z4 e4- | e2 f2 (d4- | d4 d2 ^c2) | !fermata!d16 |] %129
w: * mi- num,|De-|um tu- *||um.|
V:2
 D4 ^C4 | D6 C2 | _B,2 A,2 !courtesy!=B,2 G,2 | A,4 D,4 | A,8 | D,8 || D4 ^C2 D2 | G,A,_B,C D2 C2 | %8
 _B,3 G, A,3 F, | C2 C,2 F,2 F2 | ^C2 D2 A,2 _B,2 | ^F,2 G,2[K:treble] D2 _E2 | ^C2 D2 E2 FG | %13
 A2 A,2 D4 || D2 ^C2 D2 G,2 | D,2 DC _B,A, G,2 | A,2 D,2 A,2 A,G, | ^F,E, G,4 F,2 | G,4 D,4 || %19
 D,4 D2 A,>B, | C2 B,A, ^G,2 A,2 | E,4 A,4 | D,2 D2 _B,4 | G,A,_B,C D2 ^CB, | ^C4 D4 | %25
 =C2 _B,2 A,2 D,2 | A,4 D,4 || D4 ^C4 | DEFG A2 A,2 | D8 || D,DC_B, A,2 B,2 | C2 F,2 C,4 | %32
 F,2 E,F, G,4 | C2 B,C D4 | G,2 F,G, A,4 | D,8 || D,4 ^C,4 | D,2 C,D, E,2 D,E, | %38
 F,2 E,F, G,2 F,G, || A,4 ^G,4 | A,2 E,2 F,2 E,F, | G,2 F,G, A,4 | D,8 || D6 A,2 | %44
 D,2 G,2 _B,2 ^F,2 | G,2 A,2 _B,4 | A,2 D,2 F,2 ^C,2 | D,2 E,2 F,4 | E,2 ^C,2 D,2 A,2 | %49
 F,2 ^C,2 D,4 | A,2 _B,2 A,4 | D,8 || D,4 ^C,4 | D,2 D4 C2 | _B,A,B,C A,2 F,G, | A,8 | D,8 || %57
 D,4 ^C,4 | D,2 E,2 F,4 | E,2 C2 E,4 | A,,2 A,G, F,2 E,D, || A,4 D2 C_B, | A,2 A,G, F,2 E,D, | %63
 A,4 D,2 F,2 | A,8 || A,4 A,4 | _B,4 G,4 | A,8 | D,8 || D,8 | D,2 D2 D2 E2 | F4 F,4 | %72
 _B,,2 C,2 D,2 E,2 | F,4 A,4 | B,4 C4 | z4 E,4 | ^F,4"^6" G,4 | E,4 F,4 | _B,8 | A,8 || D4 C4 | %81
 _B,4 A,4 | G,2 A,2 _B,2 C2 | D2 G,2 A,4 | _B,2 ^F,2 G,4 | D,8 || A,2 F,2 C2 ^C2 | D2 B,2 C2 B,A, | %88
 E2 E,2 A,B,^CA, | D2 G,2 D2 D,2 | G,2 B,2[K:treble] C2 GF | E2 D2 E2[K:bass] A,2 | G,2 F,2 E,4 | %93
 A,8 || F,4"^43" C4 |"^43" _B,4 A,3"^43" G, | ^F,E, G,4 F,2 | G,4 D,4 || D4 G,4 | z G,G,G, C2 C2 | %100
 z A,A,A, C2 C2 | C2 B,C ^G,2 G,G, | A,4"^3" E,2 F2 | C2 B,A, ^G,2 G,2 | D,4 E,4 | A,8 || %106
 A,G,F,E, D,2 D2 | ^C2 =C2 B,2 _B,2 | A,2 D,2 A,4 | D,8 || D,4 D2 ^C2 | D2 ^C2 D2 D,2 | %112
 A,4 D2 B,2 | C4"^3" D2 D,2 | G,2 B,3 B, C2 | E,2 F,2 C3 _B, | A,2 D,2 A,4 | D,8 || D4 ^C4 | %119
 D2 D,2 E,3 E, | F,2 F,2 G,3 G, | A,4 B,4 | ^C4 D4 | G,4 A,4 | B,4 C4 | _B,4 C4 | F,6 G,2 | A,8 | %128
 !fermata!D,16 |] %129

